svgs/duotone/bowl-food.svg

<svg xmlns="http://www.w3.org/2000/svg" viewBox="0 0 512 512"><!--! Font Awesome Pro 6.3.0 by @fontawesome - https://fontawesome.com License - https://fontawesome.com/license (Commercial License) Copyright 2023 Fonticons, Inc. --><defs><style>.fa-secondary{opacity:.4}</style></defs><path class="fa-primary" d="M484.6 256C499.7 256 512 268.3 512 283.4C512 353.9 467.6 414.1 405.3 437.5L403.5 451.1C401.5 467.1 387.9 480 371.8 480H140.2C124.1 480 110.5 467.1 108.5 451.1L106.7 437.5C44.36 414.1 0 353.9 0 283.4C0 268.3 12.28 256 27.43 256H484.6z"/><path class="fa-secondary" d="M8.562 224C3.116 214.6 0 203.7 0 192C0 156.7 28.65 128 64 128C64.53 128 65.07 128 65.6 128C73 91.49 105.3 64 144 64C158.1 64 172.1 68.1 184.9 75.25C198.2 49.55 225.1 32 256 32C286.9 32 313.8 49.56 327.1 75.25C339 68.1 353 64 368 64C406.7 64 438.1 91.49 446.4 128C446.9 128 447.5 128 448 128C483.3 128 512 156.7 512 192C512 203.7 508.9 214.6 503.4 224H8.562z"/></svg>

<svg xmlns="http://www.w3.org/2000/svg" viewBox="0 0 512 512"><!--! Font Awesome Pro 6.4.0 by @fontawesome - https://fontawesome.com License - https://fontawesome.com/license (Commercial License) Copyright 2023 Fonticons, Inc. --><defs><style>.fa-secondary{opacity:.4}</style></defs><path class="fa-primary" d="M27.4 256C12.3 256 0 268.3 0 283.4c0 70.5 44.4 130.7 106.7 154.1l1.8 14.4c2 16 15.6 28 31.8 28H371.8c16.1 0 29.8-12 31.8-28l1.8-14.4C467.6 414.1 512 353.9 512 283.4c0-15.1-12.3-27.4-27.4-27.4H27.4z"/><path class="fa-secondary" d="M8.6 224C3.1 214.6 0 203.7 0 192c0-35.3 28.7-64 64-64c.5 0 1.1 0 1.6 0C73 91.5 105.3 64 144 64c15 0 29 4.1 40.9 11.2C198.2 49.6 225.1 32 256 32s57.8 17.6 71.1 43.2C339 68.1 353 64 368 64c38.7 0 71 27.5 78.4 64c.5 0 1.1 0 1.6 0c35.3 0 64 28.7 64 64c0 11.7-3.1 22.6-8.6 32H8.6z"/></svg>
